svg/alert_positive.svg

<?xml version="1.0" encoding="UTF-8" standalone="no"?>
<!-- Created with Inkscape (http://www.inkscape.org/) -->
<svg id="svg8" xmlns:rdf="http://www.w3.org/1999/02/22-rdf-syntax-ns#" xmlns="http://www.w3.org/2000/svg" xmlns:osb="http://www.openswatchbook.org/uri/2009/osb" height="48" width="48" version="1.1" xmlns:cc="http://creativecommons.org/ns#" viewBox="0 0 12.7 12.7" xmlns:dc="http://purl.org/dc/elements/1.1/">
 <title id="title4753">UIO-icon</title>
 <metadata id="metadata5">
  <rdf:RDF>
   <cc:Work rdf:about="">
    <dc:format>image/svg+xml</dc:format>
    <dc:type rdf:resource="http://purl.org/dc/dcmitype/StillImage"/>
    <dc:title>UIO-icon</dc:title>
    <dc:creator>
     <cc:Agent>
      <dc:title>Joaquín Urbano</dc:title>
     </cc:Agent>
    </dc:creator>
    <dc:rights>
     <cc:Agent>
      <dc:title>GPL</dc:title>
     </cc:Agent>
    </dc:rights>
   </cc:Work>
  </rdf:RDF>
 </metadata>
 <g id="layer1" transform="translate(0,-284.3)" fill="#333">
  <path id="path879" d="m22.439 12.832 0.19727 15.91h2.543l0.21289-15.91zm1.5527 19.139c-0.54812 0-0.96384 0.158-1.248 0.47266-0.27406 0.30451-0.41211 0.68386-0.41211 1.1406 0 0.45677 0.13805 0.83807 0.41211 1.1426 0.28421 0.29436 0.69993 0.44141 1.248 0.44141 0.54812 0 0.96384-0.14705 1.248-0.44141 0.28421-0.30451 0.42773-0.68581 0.42773-1.1426 0-0.45677-0.14352-0.83611-0.42773-1.1406-0.28421-0.31466-0.69993-0.47266-1.248-0.47266z" transform="matrix(.26458 0 0 .26458 0 284.3)"/>
 </g>
</svg>

<svg width="48" height="48" viewBox="0 0 48 48" fill="none" xmlns="http://www.w3.org/2000/svg">
<path d="M22.4387 12.832L22.636 28.7418H25.1789L25.3918 12.832H22.4387ZM23.9914 31.9708C23.4433 31.9708 23.0276 32.1288 22.7434 32.4434C22.4693 32.748 22.3313 33.1273 22.3313 33.584C22.3313 34.0408 22.4693 34.4221 22.7434 34.7266C23.0276 35.021 23.4433 35.168 23.9914 35.168C24.5395 35.168 24.9552 35.021 25.2394 34.7266C25.5236 34.4221 25.6671 34.0408 25.6671 33.584C25.6671 33.1273 25.5236 32.7479 25.2394 32.4434C24.9552 32.1288 24.5394 31.9708 23.9914 31.9708Z" fill="#333333"/>
</svg>
